src/lib/packages/icons/src/assets/filled/arrow-down-arrow-up-circle.svg

<svg width="24" height="24" viewBox="0 0 24 24" fill="none" xmlns="http://www.w3.org/2000/svg">
<path d="M12 2C6.477 2 2 6.477 2 12C2 17.523 6.477 22 12 22C17.523 22 22 17.523 22 12C22 6.477 17.523 2 12 2ZM12.199 15.8621L10.532 17.5291C10.463 17.5981 10.3801 17.6529 10.2891 17.6909C10.1981 17.7289 10.1 17.749 10.002 17.749C9.90395 17.749 9.80709 17.7289 9.71509 17.6909C9.62309 17.6529 9.54092 17.5981 9.47192 17.5291L7.80493 15.8621C7.51193 15.5701 7.51193 15.094 7.80493 14.801C8.09793 14.508 8.57297 14.508 8.86597 14.801L9.25293 15.187V8.99707C9.25293 8.58307 9.58893 8.24707 10.0029 8.24707C10.4169 8.24707 10.7529 8.58307 10.7529 8.99707V15.187L11.1399 14.801C11.4339 14.508 11.9089 14.509 12.2009 14.801C12.4919 15.094 12.492 15.5691 12.199 15.8621ZM16.1951 9.19507C16.0491 9.34107 15.857 9.41504 15.665 9.41504C15.473 9.41504 15.281 9.34207 15.135 9.19507L14.748 8.80908V14.999C14.748 15.413 14.412 15.749 13.998 15.749C13.584 15.749 13.248 15.413 13.248 14.999V8.80908L12.8611 9.19507C12.5671 9.48907 12.092 9.48707 11.8 9.19507C11.507 8.90207 11.507 8.42703 11.8 8.13403L13.467 6.46704C13.536 6.39804 13.6189 6.34293 13.7109 6.30493C13.8939 6.22893 14.1009 6.22893 14.2839 6.30493C14.3759 6.34293 14.4591 6.39804 14.5281 6.46704L16.1951 8.13403C16.4881 8.42703 16.4881 8.90207 16.1951 9.19507Z" fill="currentColor"/>
</svg>

<svg xmlns="http://www.w3.org/2000/svg" width="24" height="24" fill="none"><path fill="currentColor" d="M12 2C6.477 2 2 6.477 2 12s4.477 10 10 10 10-4.477 10-10S17.523 2 12 2Zm.199 13.862-1.667 1.667a.754.754 0 0 1-1.06 0l-1.667-1.667a.75.75 0 0 1 1.061-1.061l.387.386v-6.19a.75.75 0 0 1 1.5 0v6.19l.387-.386a.751.751 0 0 1 1.06 0 .752.752 0 0 1-.001 1.061Zm3.996-6.667a.748.748 0 0 1-1.06 0l-.387-.386V15a.75.75 0 0 1-1.5 0V8.81l-.387.386A.75.75 0 0 1 11.8 8.134l1.667-1.667a.749.749 0 0 1 .817-.162.75.75 0 0 1 .244.162l1.667 1.667a.75.75 0 0 1 0 1.061Z"/></svg>
